assets/img/apple-touch.svg

<svg width="180" height="180" viewBox="0 0 180 180" fill="none" xmlns="http://www.w3.org/2000/svg">
<rect width="180" height="180" rx="12" fill="white"/>
<path d="M28.7009 100.294H33.185C38.4977 100.294 42.8355 97.2238 42.8355 90.3027C42.8355 83.3816 38.4977 80.2623 33.185 80.2623H28.7009V100.294ZM33.4774 107.557H21V73H33.5262C43.9078 73 50.8776 79.6286 50.8776 90.3027C50.8776 100.977 43.9078 107.557 33.4774 107.557Z" fill="black"/>
<path d="M78.2981 107.557H56.3651V73H78.2493V80.2623H64.066V86.8422H76.9333V93.617H64.066V100.246H78.2981V107.557Z" fill="black"/>
<path d="M98.5686 97.3213L106.806 73H114.994L102.37 107.557H94.4257L81.7533 73H90.234L98.5686 97.3213Z" fill="black"/>
<path d="M112.274 102.975C112.274 100.246 114.516 98.0036 117.245 98.0036C119.975 98.0036 122.266 100.246 122.266 102.975C122.266 105.656 119.975 107.995 117.245 107.995C114.516 107.995 112.274 105.656 112.274 102.975Z" fill="black"/>
<path d="M158.173 73L147.061 90.3514L158.271 107.557H148.913L142.089 96.3465L135.314 107.557H126.249L137.41 90.254L126.249 73H135.509L142.333 84.2102L149.156 73H158.173Z" fill="#7000FF"/>
</svg>

<svg width="180" height="180" fill="none" xmlns="http://www.w3.org/2000/svg"><rect width="180" height="180" rx="12" fill="#fff"/><path d="M28.7 100.294h4.485c5.313 0 9.65-3.07 9.65-9.991 0-6.921-4.337-10.04-9.65-10.04h-4.484v20.031Zm4.777 7.263H21V73h12.526c10.382 0 17.352 6.629 17.352 17.303 0 10.674-6.97 17.254-17.4 17.254ZM78.298 107.557H56.365V73H78.25v7.262H64.066v6.58h12.867v6.775H64.066v6.629h14.232v7.311ZM98.569 97.321 106.806 73h8.188l-12.624 34.557h-7.944L81.753 73h8.481l8.335 24.321ZM112.274 102.975c0-2.729 2.242-4.971 4.971-4.971 2.73 0 5.021 2.242 5.021 4.971 0 2.681-2.291 5.02-5.021 5.02-2.729 0-4.971-2.339-4.971-5.02Z" fill="#000"/><path d="m158.173 73-11.112 17.351 11.21 17.206h-9.358l-6.824-11.21-6.775 11.21h-9.065l11.161-17.303L126.249 73h9.26l6.824 11.21L149.156 73h9.017Z" fill="#7000FF"/></svg>
